X:45
T:Havermeuleke
C:Traditioneel
O:Westerlo
B:Hopsasa, Vlaams Dansarchief
Z:Bert Van Vreckem <http://flanders.blackmill.net/music/>
R:Mars
Q:1/4=120
N:Voorspel (ABB) ad lib. C
M:2/4
L:1/8
K:G
P:Voorspel
Bc|(3B/c/B/A AB|(3A/B/A/G GA|G>F EF|Gz z3/2D/||
P:A
!segno!Gz Bz|Gz (3DGB|dz Dz|Gz Bc||
P:B
|:(3B/c/B/A AB|(3A/B/A/G GA|G>F EF|(3E/F/E/D Bc|
(3B/c/B/A AB|(3A/B/A/G GA|G>F EF|1Gz Bc:|2Gz z3/2!segno!D/||
P:C
Gz Bz|Gz (3DGB|dz Dz|Gz z2|]
%%scale 0.65
